material/.icons/material/numeric-negative-1.svg

<svg xmlns="http://www.w3.org/2000/svg" viewBox="0 0 24 24"><path d="M13 7v2h2v8h2V7h-4m-2 6H6v-2h5v2z"/></svg>

<?xml version="1.0" encoding="UTF-8"?><!DOCTYPE svg PUBLIC "-//W3C//DTD SVG 1.1//EN" "http://www.w3.org/Graphics/SVG/1.1/DTD/svg11.dtd"><svg xmlns="http://www.w3.org/2000/svg" xmlns:xlink="http://www.w3.org/1999/xlink" version="1.1" id="mdi-numeric-negative-1" width="24" height="24" viewBox="0 0 24 24"><path d="M13 7V9H15V17H17V7H13M11 13H6V11H11V13Z" /></svg>
